X:32
T:Bessy Bell and Mary Gray
L:1/8
M:6/8
B:McGlashan - Collection of Scots Measures 
Z:AK/Fiddler's Companion
K:D Mix
A|F>GA ABc|B>AB G2G|F>GA A>BA|d3 (g2f/g/)|aAA ABc|
BAG g2 f/g/|agf gfe|d3f2:|
|:f/g/|afd dfd|gec efg|a/g/f/e/d d>fd|f3 (g2f/g/)|afd faf|gec efg|agf 
gfe|d3f2||

